src/components/Home/icons/execution.svg

<svg width="21" height="20" viewBox="0 0 21 20" fill="none" xmlns="http://www.w3.org/2000/svg">
<g clip-path="url(#clip0_24_1118)">
<path d="M7.97022 10.5767C7.69639 10.3029 7.27537 10.3029 7.02292 10.5767L2.03322 15.5664C1.08593 16.5137 1.08593 18.0506 2.03322 19.0183C2.98051 19.9656 4.51744 19.9656 5.48515 19.0183L10.474 14.0295C10.7478 13.7557 10.7478 13.3346 10.474 13.0822L7.97022 10.5767ZM3.4649 16.7867C3.3177 16.9339 3.08581 16.9339 2.93862 16.7867C2.79143 16.6395 2.79143 16.4076 2.93862 16.2605L6.91683 12.2823C7.06402 12.1351 7.29591 12.1351 7.4431 12.2823C7.59029 12.4294 7.59029 12.6613 7.4431 12.8085L3.4649 16.7867ZM8.79099 14.1135L4.79132 18.1132C4.64412 18.2603 4.41223 18.2603 4.26504 18.1132C4.11785 17.966 4.11785 17.7341 4.26504 17.5869L8.24325 13.6087C8.39044 13.4615 8.62233 13.4615 8.76952 13.6087C8.93809 13.7345 8.93818 13.9663 8.79099 14.1135Z" fill="white"/>
<path d="M9.19062 5.86187C9.80076 4.32498 9.485 2.51519 8.26472 1.27255C7.21217 0.220007 5.73861 -0.159078 4.39177 0.114753C4.18126 0.17807 4.11794 0.388583 4.24376 0.515204L6.37032 2.64093C6.74941 3.02001 6.74941 3.60961 6.37032 3.98785L5.00201 5.35616C4.62293 5.73525 4.03333 5.73525 3.65509 5.35616L1.50726 3.20918C1.38145 3.06198 1.14956 3.1253 1.10763 3.31443C0.791867 4.70413 1.17095 6.1982 2.24404 7.29263C3.48571 8.5343 5.3179 8.85007 6.83336 8.21854L17.2117 19.1017C17.9698 19.9018 19.2115 19.9223 19.9902 19.1436C20.7903 18.3649 20.7903 17.1018 19.9902 16.3232L9.19062 5.86187ZM18.4324 18.5558C17.8642 18.5558 17.4012 18.0928 17.4012 17.5246C17.4012 16.9564 17.8642 16.4935 18.4324 16.4935C19.0006 16.4935 19.4636 16.9564 19.4636 17.5246C19.443 18.0928 19.0006 18.5558 18.4324 18.5558Z" fill="white"/>
<path d="M20.8952 1.02007L19.9692 0.0941664C19.864 -0.0110882 19.6749 -0.0324675 19.5482 0.0522288L17.0006 1.86212C16.8954 1.946 16.8115 2.07263 16.8115 2.21982V2.78803C16.8115 2.82997 16.7901 2.85135 16.7696 2.8719L16.6849 2.99854C16.6429 3.04048 16.6216 3.08241 16.6216 3.12517L16.6002 3.29374C16.6002 3.33568 16.5788 3.35706 16.5582 3.37762L12.3481 7.5878C12.2642 7.67168 12.2642 7.79831 12.3481 7.88218L13.0848 8.61896C13.1687 8.70284 13.2954 8.70284 13.3792 8.61896L17.5679 4.43025C17.5893 4.40887 17.6313 4.38831 17.6518 4.38831L17.8409 4.36693C17.8829 4.36693 17.9248 4.34555 17.9676 4.30362L18.0514 4.21974C18.0728 4.19836 18.1148 4.1778 18.1353 4.1778L18.914 4.19918C19.0612 4.19918 19.2084 4.13586 19.2931 4.01005L20.9583 1.44121C21.0216 1.31457 21.0218 1.14671 20.8952 1.02007Z" fill="white"/>
</g>
<defs>
<clipPath id="clip0_24_1118">
<rect width="20" height="20" fill="white" transform="translate(0.751953)"/>
</clipPath>
</defs>
</svg>

<svg xmlns="http://www.w3.org/2000/svg" width="21" height="20" fill="none">
  <g fill="#fff" clip-path="url(#a)">
    <path d="M7.97 10.577c-.274-.274-.695-.274-.947 0l-4.99 4.99c-.947.947-.947 2.484 0 3.451.948.948 2.484.948 3.452 0l4.989-4.989c.274-.273.274-.694 0-.947L7.97 10.577Zm-4.505 6.21a.369.369 0 0 1-.526 0 .369.369 0 0 1 0-.526l3.978-3.979a.369.369 0 0 1 .526 0 .369.369 0 0 1 0 .527l-3.978 3.978Zm5.326-2.673-4 4a.369.369 0 0 1-.526 0 .369.369 0 0 1 0-.527l3.978-3.978a.369.369 0 0 1 .527 0c.168.126.168.357.021.505Z"/>
    <path d="M9.19 5.862a4.291 4.291 0 0 0-.925-4.59A4.272 4.272 0 0 0 4.392.116c-.21.063-.274.274-.148.4L6.37 2.641a.94.94 0 0 1 0 1.347L5.002 5.356a.94.94 0 0 1-1.347 0L1.507 3.21a.23.23 0 0 0-.4.105 4.293 4.293 0 0 0 1.137 3.979 4.219 4.219 0 0 0 4.59.926l10.378 10.883c.758.8 2 .82 2.778.042.8-.78.8-2.042 0-2.82L9.19 5.861Zm9.242 12.694a1.033 1.033 0 0 1-1.03-1.031c0-.569.462-1.031 1.03-1.031.569 0 1.032.462 1.032 1.03-.021.569-.463 1.032-1.032 1.032Z"/>
    <path d="M20.895 1.02 19.97.094a.348.348 0 0 0-.42-.042L17 1.862a.468.468 0 0 0-.19.358v.568c0 .042-.02.063-.041.084l-.085.127c-.042.041-.063.083-.063.126l-.022.169c0 .042-.021.063-.042.084l-4.21 4.21a.204.204 0 0 0 0 .294l.737.737c.084.084.21.084.294 0l4.189-4.189a.16.16 0 0 1 .084-.042l.189-.021c.042 0 .084-.021.127-.063l.083-.084a.16.16 0 0 1 .084-.042l.779.021a.452.452 0 0 0 .38-.189l1.664-2.569a.356.356 0 0 0-.063-.42Z"/>
  </g>
  <defs>
    <clipPath id="a">
      <path fill="#fff" d="M.752 0h20v20h-20z"/>
    </clipPath>
  </defs>
</svg>
